usr/share/icons/biglinux-icons-material/scalable/apps/psensor.svg

<?xml version="1.0" encoding="UTF-8" standalone="no"?>
<svg
   width="24"
   height="24"
   viewBox="0 0 6.349875 6.349875"
   version="1.1"
   id="svg16"
   sodipodi:docname="xfce-sensors.svg"
   xml:space="preserve"
   inkscape:version="1.2.2 (b0a8486541, 2022-12-01)"
   xmlns:inkscape="http://www.inkscape.org/namespaces/inkscape"
   xmlns:sodipodi="http://sodipodi.sourceforge.net/DTD/sodipodi-0.dtd"
   xmlns="http://www.w3.org/2000/svg"
   xmlns:svg="http://www.w3.org/2000/svg"><defs
     id="defs20"><radialGradient
       id="paint0_radial_2_129"
       cx="0"
       cy="0"
       r="1"
       gradientUnits="userSpaceOnUse"
       gradientTransform="matrix(0,5.8207186,-5.8207186,0,3.1749334,0.26459254)"><stop
         stop-color="#FAFAFA"
         id="stop8838" /><stop
         offset="1"
         stop-color="#B0B0B0"
         id="stop8840" /></radialGradient></defs><sodipodi:namedview
     id="namedview18"
     pagecolor="#ffffff"
     bordercolor="#000000"
     borderopacity="0.25"
     inkscape:showpageshadow="2"
     inkscape:pageopacity="0.0"
     inkscape:pagecheckerboard="0"
     inkscape:deskcolor="#d1d1d1"
     showgrid="false"
     inkscape:zoom="9.656427"
     inkscape:cx="5.2814566"
     inkscape:cy="31.999414"
     inkscape:window-width="2560"
     inkscape:window-height="998"
     inkscape:window-x="1680"
     inkscape:window-y="0"
     inkscape:window-maximized="1"
     inkscape:current-layer="svg16" /><path
     fill-rule="evenodd"
     clip-rule="evenodd"
     d="m 2.6298231,0.28252564 c -0.028905,0.00842 -0.059212,0.012456 -0.09092,0.01212 -0.196436,0.01579 -0.3904035,0.047087 -0.5819025,0.093907 C 1.135168,0.58394094 0.616915,1.0898327 0.4022388,1.9062229 c -0.100626,0.41602 -0.146085,0.8380909 -0.136384,1.2662577 -0.0081,0.4026349 0.03129,0.8004811 0.1182,1.1935383 0.2047832,0.8731343 0.745266,1.4073173 1.6214403,1.6024973 0.4760184,0.09795 0.9568759,0.134299 1.4426148,0.108979 0.4318445,-0.0073 0.8521003,-0.08001 1.2607942,-0.218091 C 5.2132429,5.6743842 5.5779374,5.3381322 5.8029875,4.8506467 5.924323,4.569506 6.0031409,4.2766709 6.0393881,3.9721679 6.0878321,3.5389213 6.0979391,3.1047221 6.0697091,2.6695705 6.0492837,2.3230366 5.98261,1.985771 5.8696616,1.6577893 5.6721805,1.1130336 5.3054488,0.73033474 4.7695193,0.50968974 4.4471573,0.38707894 4.1137624,0.31235414 3.7693611,0.28552594 c -0.3798283,-0.026881 -0.7596567,-0.027891 -1.139538,-0.003 z"
     fill="url(#paint0_radial_2_129)"
     id="path8836"
     style="fill:url(#paint0_radial_2_129);stroke-width:0.264578"
     sodipodi:nodetypes="cccccccccccccccc" /><g
     id="g382"
     transform="matrix(0.35895822,0,0,0.35895822,2.0826501,0.18463801)"><path
       d="m 3.175438,3.436 a 1.32,1.32 0 0 0 -1.323,1.323 V 8.557 A 2.646,2.646 0 0 0 0.529437,10.845 2.646,2.646 0 0 0 3.175438,13.49 2.646,2.646 0 0 0 5.8204375,10.845 2.646,2.646 0 0 0 4.498438,8.555 V 4.759 a 1.32,1.32 0 0 0 -1.323,-1.323 z m 0,0.794 c 0.307,0 0.529,0.222 0.529,0.53 v 4.254 l 0.397,0.23 c 0.573,0.33 0.9250005,0.939 0.9259995,1.601 a 1.84,1.84 0 0 1 -1.8519995,1.852 1.84,1.84 0 0 1 -1.852,-1.851 c 0,-0.663 0.353,-1.27 0.926,-1.601 l 0.396,-0.23 V 4.759 c 0,-0.307 0.223,-0.529 0.53,-0.529 z"
       opacity="0.5"
       id="path367" /><path
       d="m 2.645438,6.611 v 2.405 l -0.396,0.229 c -0.573,0.33 -0.925,0.938 -0.926,1.6 a 1.84,1.84 0 0 0 1.852,1.852 A 1.84,1.84 0 0 0 5.0274375,10.845 1.85,1.85 0 0 0 4.101438,9.243 l -0.397,-0.229 V 6.611 Z"
       fill="#ff5555"
       id="path369" /><path
       d="m 6.0854375,3.97 h 2.117 v 0.529 h -2.117 z m 0,1.059 h 2.117 v 0.529 h -2.117 z m 0,1.058 h 2.117 v 0.529 h -2.117 z m 0,1.058 h 2.117 v 0.529 h -2.117 z m 0,1.059 h 2.117 v 0.529 h -2.117 z"
       opacity="0.5"
       paint-order="stroke fill markers"
       id="path371" /><circle
       cx="-1.5875626"
       cy="3.6999891"
       r="0.52899998"
       opacity="0.5"
       paint-order="stroke fill markers"
       id="circle373" /><circle
       cx="-1.5875626"
       cy="3.6999891"
       r="0.26499999"
       fill="#ff5555"
       paint-order="stroke fill markers"
       id="circle375" /></g></svg>

<svg xmlns="http://www.w3.org/2000/svg" xml:space="preserve" width="24" height="24" viewBox="0 0 6.35 6.35"><defs><radialGradient id="a" cx="0" cy="0" r="1" gradientTransform="rotate(90 1.455 1.72) scale(5.82072)" gradientUnits="userSpaceOnUse"><stop stop-color="#FAFAFA"/><stop offset="1" stop-color="#B0B0B0"/></radialGradient></defs><path fill="url(#a)" fill-rule="evenodd" d="M2.63.283a.312.312 0 0 1-.091.012c-.197.015-.39.047-.582.094-.822.195-1.34.7-1.555 1.517-.1.416-.146.838-.136 1.266-.008.403.031.801.118 1.194.205.873.745 1.407 1.621 1.603.477.097.957.134 1.443.108.432-.007.852-.08 1.26-.218a1.87 1.87 0 0 0 1.095-1.008c.121-.281.2-.574.236-.879.049-.433.059-.867.03-1.302a3.775 3.775 0 0 0-.2-1.012A1.886 1.886 0 0 0 4.77.51a3.581 3.581 0 0 0-1-.224A8.37 8.37 0 0 0 2.63.283z" clip-rule="evenodd" style="fill:url(#a);stroke-width:.264578"/><g transform="matrix(.35896 0 0 .35896 2.083 .185)"><path d="M3.175 3.436a1.32 1.32 0 0 0-1.323 1.323v3.798A2.646 2.646 0 0 0 .53 10.845a2.646 2.646 0 0 0 2.646 2.645 2.646 2.646 0 0 0 2.645-2.645 2.646 2.646 0 0 0-1.322-2.29V4.759a1.32 1.32 0 0 0-1.323-1.323zm0 .794c.307 0 .53.222.53.53v4.254l.396.23c.573.33.925.939.926 1.601a1.84 1.84 0 0 1-1.852 1.852 1.84 1.84 0 0 1-1.852-1.851c0-.663.353-1.27.926-1.601l.396-.23V4.759c0-.307.223-.529.53-.529z" opacity=".5"/><path fill="#f55" d="M2.645 6.611v2.405l-.396.229c-.573.33-.925.938-.926 1.6a1.84 1.84 0 0 0 1.852 1.852 1.84 1.84 0 0 0 1.852-1.852 1.85 1.85 0 0 0-.926-1.602l-.397-.229V6.611Z"/><path d="M6.085 3.97h2.117v.529H6.085zm0 1.059h2.117v.529H6.085zm0 1.058h2.117v.529H6.085zm0 1.058h2.117v.529H6.085zm0 1.059h2.117v.529H6.085z" opacity=".5" paint-order="stroke fill markers"/><circle cx="-1.588" cy="3.7" r=".529" opacity=".5" paint-order="stroke fill markers"/><circle cx="-1.588" cy="3.7" r=".265" fill="#f55" paint-order="stroke fill markers"/></g></svg>
